jrussellgoodman/gdp_nowcaster/data/backtest_results_2factor.csv
quarter_label,target_quarter,evaluation_date,dfm_nowcast_ann,ar1_nowcast_ann,actual_ann,dfm_error_ann,ar1_error_ann,is_2020,converged
2015 Q1,2015-01-01,2015-03-31,0.4518250885203585,1.9877753801002136,3.5858191507699644,-3.133994062249606,-1.5980437706697508,False,True
2015 Q2,2015-04-01,2015-06-30,-2.032551048925466,1.1572340477848868,2.469978633014591,-4.502529681940057,-1.3127445852297044,False,True
2015 Q3,2015-07-01,2015-09-30,2.4107804998325992,2.5629845606646566,1.5977848462760846,0.8129956535565146,0.965199714388572,False,True
2015 Q4,2015-10-01,2015-12-31,0.4741529879665487,1.882337843657853,0.7372366908420247,-0.263083702875476,1.1451011528158284,False,True
2016 Q1,2016-01-01,2016-03-31,-1.0304497514767512,1.6669858196011695,2.311386607388499,-3.34183635886525,-0.6444007877873297,False,True
2016 Q2,2016-04-01,2016-06-30,-1.1216280084346593,1.547750805376055,1.2824382650691746,-2.404066273503834,0.26531254030688034,False,True
2016 Q3,2016-07-01,2016-09-30,0.3049896050395736,1.6656743183268983,2.827543676441735,-2.5225540714021615,-1.1618693581148367,False,True
2016 Q4,2016-10-01,2016-12-31,1.186584927674978,2.42325997017863,2.2110741144842905,-1.0244891868093124,0.21218585569433968,False,True
2017 Q1,2017-01-01,2017-03-31,1.6938632842905832,1.9204678593164846,1.9428349324144278,-0.24897164812384465,-0.02236707309794328,False,True
2017 Q2,2017-04-01,2017-06-30,-0.18815871615921495,1.6845811791841405,2.233244405191215,-2.42140312135043,-0.5486632260070743,False,True
2017 Q3,2017-07-01,2017-09-30,1.4249878192237981,2.2792175534989063,3.141726102739284,-1.7167382835154859,-0.8625085492403777,False,True
2017 Q4,2017-10-01,2017-12-31,2.3049059456358103,2.326583169433939,4.48297110775755,-2.1780651621217393,-2.1563879383236104,False,True
2018 Q1,2018-01-01,2018-03-31,2.2770373917130398,2.2424769292463305,3.2404778196678308,-0.963440427954791,-0.9980008904215003,False,True
2018 Q2,2018-04-01,2018-06-30,0.2438434928285943,1.9237337802224443,2.11768492150739,-1.8738414286787957,-0.19395114128494573,False,True
2018 Q3,2018-07-01,2018-09-30,3.158805865591558,2.671538634275559,2.487041930090328,0.6717639355012301,0.18449670418523123,False,True
2018 Q4,2018-10-01,2018-12-31,1.888473576997212,2.4305648244350726,0.5661759932735322,1.32229758372368,1.8643888311615404,False,True
2019 Q1,2019-01-01,2019-03-31,-0.56592762810805,2.042980756025772,2.4895091629069555,-3.0554367910150053,-0.44652840688118367,False,True
2019 Q2,2019-04-01,2019-06-30,1.027953229065964,2.3667759953996086,3.326711173158259,-2.2987579440922947,-0.9599351777586502,False,True
2019 Q3,2019-07-01,2019-09-30,1.109834230793167,2.005529110147858,4.6528410323638525,-3.5430068015706855,-2.6473119222159944,False,True
2019 Q4,2019-10-01,2019-12-31,-0.3512352085256194,2.0350499687432775,2.7182543872214637,-3.069489595747083,-0.6832044184781862,False,True
2020 Q1,2020-01-01,2020-03-31,0.3199332398659921,2.043283471846125,-5.300247883186415,5.620181123052407,7.343531355032541,True,True
2020 Q2,2020-04-01,2020-06-30,-13.482899473365855,-0.3813172442166093,-32.81728241610793,19.334382942742074,32.43596517189132,True,True
2020 Q3,2020-07-01,2020-09-30,-12.655589096501346,-33.58367343189892,29.902998544979198,-42.55858764148054,-63.48667197687812,True,True
2020 Q4,2020-10-01,2020-12-31,12.683893893871568,-7.241082705253508,4.508555862817332,8.175338031054237,-11.74963856807084,True,True
2021 Q1,2021-01-01,2021-03-31,0.9826937510368361,1.2722803739810966,5.544658613895592,-4.561964862858757,-4.272378239914495,False,True
2021 Q2,2021-04-01,2021-06-30,2.6241028728036557,0.9319739115783849,6.750285416705282,-4.126182543901626,-5.818311505126896,False,True
2021 Q3,2021-07-01,2021-09-30,2.819776809180493,0.9698527063502722,3.2866716567674814,-0.4668948475869885,-2.3168189504172094,False,True
2021 Q4,2021-10-01,2021-12-31,0.730536533214924,1.82867426770145,6.804809235885756,-6.074272702670832,-4.976134968184306,False,True
2022 Q1,2022-01-01,2022-03-31,2.0842693224048228,1.0227431400572222,-1.0204951651815009,3.1047644875863236,2.043238305238723,False,True
2022 Q2,2022-04-01,2022-06-30,-0.30286694283484117,2.628742167119533,0.6256983803410776,-0.9285653231759188,2.003043786778455,False,True
2022 Q3,2022-07-01,2022-09-30,-1.6480117049091518,2.4830156349361263,2.877225330117028,-4.52523703502618,-0.39420969518090176,False,True
2022 Q4,2022-10-01,2022-12-31,0.7526506364625899,1.675387200655312,2.7514765401292607,-1.998825903666671,-1.0760893394739486,False,True
2023 Q1,2023-01-01,2023-03-31,0.06092943230870901,1.826071364937738,2.884974679699326,-2.824045247390617,-1.0589033147615878,False,True
2023 Q2,2023-04-01,2023-06-30,-0.16662882037025317,1.948722989078456,2.503636219206129,-2.6702650395763823,-0.5549132301276729,False,True
2023 Q3,2023-07-01,2023-09-30,-0.00886424502754625,2.02152593385582,4.5880109584366835,-4.59687520346423,-2.5664850245808637,False,True
2023 Q4,2023-10-01,2023-12-31,1.2031199971557625,1.523438370635156,3.3620596105876643,-2.158939613431902,-1.8386212399525084,False,True
2024 Q1,2024-01-01,2024-03-31,1.0825304436980112,1.819008256720362,0.8385657658578793,0.24396467784013187,0.9804424908624827,False,True
2024 Q2,2024-04-01,2024-06-30,-0.39036205697980575,2.188668045988715,3.5263554170946065,-3.9167174740744124,-1.3376873711058916,False,True
2024 Q3,2024-07-01,2024-09-30,0.14302918553270783,1.9642321118214416,3.2855812596196188,-3.142552074086911,-1.3213491477981771,False,True
2024 Q4,2024-10-01,2024-12-31,0.7124016733340777,1.9599109909540244,1.8352819713321367,-1.122880297998059,0.12462901962188777,False,True
2025 Q1,2025-01-01,2025-03-31,0.434428836129752,2.0793648230129866,-0.6505944225686733,1.0850232586984254,2.72995924558166,False,True
2025 Q2,2025-04-01,2025-06-30,-1.2617840750493037,2.607968605584425,3.766212643182598,-5.027996718231902,-1.1582440375981733,False,True
2025 Q3,2025-07-01,2025-09-30,0.5963446280104976,1.8173519204955564,4.282379361041677,-3.6860347330311796,-2.4650274405461206,False,True
2025 Q4,2025-10-01,2025-12-31,1.1180816127196023,1.7526957192325257,0.4810890211217611,0.6369925915978412,1.2716066981107645,False,True
